X:43
T:Savior Of The Nations Come
%%stretchlast false
M:4/4
L:1/4
K:Ab clef=C1
"^vi"[F,,A,CF] "^ii"[B,,B,DF] "^iii"[C,G,CE] "^I"[A,,CEA] | "^vii°¹"[B,,B,DG]/ "^♯vii"[F,,A,F]/ "^III"[C,G,=EG] "^♯vii"[F,,A,F]2 | "^vi"[F,A,CF] [F,A,CA] "^ii"[B,,F,DB]3/2 "^vi"[F,A,CA]/ | "^V"[E,G,EB] "^I"[A,,A,Ec] [A,,CEA]2 | [A,,E,CA] "^V"[E,,G,EB] "^I"[A,,A,Ec] "^IV"[D,A,FA] | "^ii"[B,,DFB]/ [B,,DGB]/ "^vi²"[C,CFA]/ "^III"[C,C=EG]/ "^♯vii"[F,,A,F]2 | "^IV"[D,A,DF] "^ii"[B,,B,DF] "^iii"[C,G,CE] "^vi"[F,,A,CA] | "^V/vi"[C,C=EG]/ "^vi²"[C,A,F]/ "^iii"[C,G,EG] "^♯vii"[F,,A,F]2 |]
